d1 $ every 8 (degradeBy 0.7) $ every 4 (density 4) $ slow 2 $ sound "tabla tabla:1(2,16)"
  # speed "1 0.4 2 4"

d2 $ sound "808bd ~ 808sd:5 [hh hh]"
  # gain "1.2"

d3 $ slow 4 $ striate' 3 0.05 $ sound "tacscan(5,8)"
  # gain "1 0.5 1.5 3"
  # hpf "6000"

d4 $ degradeBy 0.4 $ sound "click:2*8"
  # speed "2"
  # gain "1.3"
  # hpf "1000"

d5 $ slow 3 $ striate 8 $ sound "ade:1(4,12)"
  # gain "1 0.2 0.4 0.3 1 2"

hush
