p 1 $ stack [
  plyWith "5" ((fast 1) . (|* speed 0.8)) $ s "blip",
  s "[bd:5 casioB:2] ~ snd <hih*3 ohih:1>" # gain 1.3
]

p 2
  $ slow 2
  $ plyWith "1 2 4" ((# gain "<1 0.5 1 1 0>"). (|* speed "0.7 0.4 0.3 0.45 0.5"))
  $ s "blip:3(8,3)"
  # n (irand 5)

p 3 $ stack [
  s "~snd",
  s "bd*4 ~" # gain 2
]

p 4 $ s "cr-68:4"

hush
