d1
  $ slow 3
  $ midinote "1 ~ ~ ~" # s "midi" #midichan 1
  # gain "[1 1.5]/3"

d2
  $ midinote "2 ~ ~ ~"
  # s "midi"
  # sustain "[0.1 1]/3"


d3
  $ midinote "5(7,6)"
  # s "midi"
  # gain "1 0.8 1.2"

d4 $ gain "1*8"
  #ccn 30 # s "midi"


p 1
  $ slow 2
  $ midinote "0"
  # s "midi"

p 2 $ every 4 (hurry 2) $ (chunk 4 (hurry 2) $ jux rev $ chop 8 $ s "bd")
  # speed "0.2"

p 3 $ midinote "0" # s "midi"

hush
