p 1
  $ s"jazz:0"
  # speed "<1 0.8>"


p 1 $ stack [
    s"jazz:0"
    # speed "<1 0.8>",
    every 4 (fast 2)
    $ s "bd ~ ~ sd:1",
    plyWith "<3 5 4>" (|*speed 0.8)
    $ s "hih*8?" # speed 1.3 # hpf 2000 # gain 0.9
  ] # gain 1.2

p 3 $ s "~ tost:1" # speed 1.3 # gain 0.9


hush
